!! 00000] TT[WS
!!!OTL: Zhangsheng xi yuanyang
!!!ARE: Asia, China, Shanxi Jinzhong
!! Ethnic Group: Han
!! WII, 195
!!!SCT: J0694
!!!YEM: Copyright 1995, estate of Helmut Schaffrath.
**kern
*ICvox
*Ivox
*M2/4
*k[b-e-a-]
*E-:
{16b-
16b-
16b-
16cc
16ee-
16ee-
16dd
16cc
=1
8b-
16cc
16b-
8g
16f
16g
=2
16b-
16b-
16b-
16cc
16ee-
16ee-
16dd
16cc
=3
8b-
16cc
16b-
8g
16f
16g}
=4
{16b-
16g
4b-
16g
16b-
=5
16cc
16ee-
16cc
16b-
8b-
8f
=6
16g
16b-
16b-
16f
16g
16b-
16g
16f
=7
8.e-
16f
4c}
=8
{16g
16f
8e-
8.f
16g
=9
8.b-
16g
8e-
8g
=10
8f
8g
16f
16g
16f
16e-
=11
16f
16e-
4c
16c
16e-}
=12
{8.f
16g
8e-
16d
16c
=13
8.cc
16ee-
16cc
16b-
16a-
16g
=14
8.b-
16cc
4b-}
==
!!!AGN: Xiaodiao, Shidiao. XÅshi
!!!ONB: ESAC (Essen Associative Code) Database: CHINA
!!!AMT: simple duple
!!!AIN: vox
!!!EED: Helmut Schaffrath
!!!EEV: 1.0
*-
